public/assets/img/components/logo-echo.svg

<svg xmlns="http://www.w3.org/2000/svg" width="306" height="80" viewBox="0 0 306 80">
  <defs>
    <linearGradient id="a" x1="50%" x2="50%" y1="0%" y2="100%">
      <stop stop-color="#4BC0CE" offset="0%"/>
      <stop stop-color="#4BA898" offset="100%"/>
    </linearGradient>
  </defs>
  <g fill="none" fill-rule="evenodd">
    <path fill="#2E2E2E" d="M105.273438,49.0878906 L116.470703,49.0878906 L116.470703,53.3242188 L100,53.3242188 L100,27.7304688 L105.273438,27.7304688 L105.273438,49.0878906 Z M130.181641,53.3242188 C129.947264,52.8671852 129.777344,52.2988315 129.671875,51.6191406 C128.4414,52.9902412 126.841807,53.6757812 124.873047,53.6757812 C123.009756,53.6757812 121.465826,53.1367241 120.241211,52.0585938 C119.016595,50.9804634 118.404297,49.621102 118.404297,47.9804688 C118.404297,45.9648337 119.15136,44.4179741 120.645508,43.3398438 C122.139656,42.2617134 124.298814,41.7167969 127.123047,41.7050781 L129.460938,41.7050781 L129.460938,40.6152344 C129.460938,39.7363237 129.235354,39.0332058 128.78418,38.5058594 C128.333006,37.978513 127.621099,37.7148438 126.648438,37.7148438 C125.792964,37.7148438 125.122073,37.9199198 124.635742,38.3300781 C124.149412,38.7402364 123.90625,39.3027308 123.90625,40.0175781 L118.826172,40.0175781 C118.826172,38.9160101 119.166012,37.8964891 119.845703,36.9589844 C120.525394,36.0214797 121.486322,35.2861355 122.728516,34.7529297 C123.970709,34.2197239 125.365227,33.953125 126.912109,33.953125 C129.255871,33.953125 131.116204,34.5419863 132.493164,35.7197266 C133.870124,36.8974668 134.558594,38.5527237 134.558594,40.6855469 L134.558594,48.9296875 C134.570313,50.734384 134.822263,52.0996047 135.314453,53.0253906 L135.314453,53.3242188 L130.181641,53.3242188 Z M125.980469,49.7910156 C126.730472,49.7910156 127.421872,49.6240251 128.054688,49.2900391 C128.687503,48.956053 129.156248,48.5078153 129.460938,47.9453125 L129.460938,44.6757812 L127.5625,44.6757812 C125.019519,44.6757812 123.666016,45.5546787 123.501953,47.3125 L123.484375,47.6113281 C123.484375,48.2441438 123.707029,48.7656229 124.152344,49.1757812 C124.597658,49.5859396 125.207027,49.7910156 125.980469,49.7910156 Z M149.148438,39.0683594 C148.457028,38.9746089 147.847659,38.9277344 147.320312,38.9277344 C145.398428,38.9277344 144.138675,39.5781185 143.541016,40.8789062 L143.541016,53.3242188 L138.460938,53.3242188 L138.460938,34.3046875 L143.259766,34.3046875 L143.400391,36.5722656 C144.419927,34.8261631 145.832022,33.953125 147.636719,33.953125 C148.199222,33.953125 148.72656,34.0292961 149.21875,34.1816406 L149.148438,39.0683594 Z M162.085938,53.3242188 C161.851561,52.8671852 161.681641,52.2988315 161.576172,51.6191406 C160.345697,52.9902412 158.746104,53.6757812 156.777344,53.6757812 C154.914053,53.6757812 153.370123,53.1367241 152.145508,52.0585938 C150.920892,50.9804634 150.308594,49.621102 150.308594,47.9804688 C150.308594,45.9648337 151.055657,44.4179741 152.549805,43.3398438 C154.043953,42.2617134 156.203111,41.7167969 159.027344,41.7050781 L161.365234,41.7050781 L161.365234,40.6152344 C161.365234,39.7363237 161.139651,39.0332058 160.688477,38.5058594 C160.237302,37.978513 159.525395,37.7148438 158.552734,37.7148438 C157.697261,37.7148438 157.02637,37.9199198 156.540039,38.3300781 C156.053709,38.7402364 155.810547,39.3027308 155.810547,40.0175781 L150.730469,40.0175781 C150.730469,38.9160101 151.070309,37.8964891 151.75,36.9589844 C152.429691,36.0214797 153.390619,35.2861355 154.632812,34.7529297 C155.875006,34.2197239 157.269524,33.953125 158.816406,33.953125 C161.160168,33.953125 163.020501,34.5419863 164.397461,35.7197266 C165.774421,36.8974668 166.462891,38.5527237 166.462891,40.6855469 L166.462891,48.9296875 C166.474609,50.734384 166.72656,52.0996047 167.21875,53.0253906 L167.21875,53.3242188 L162.085938,53.3242188 Z M157.884766,49.7910156 C158.634769,49.7910156 159.326169,49.6240251 159.958984,49.2900391 C160.5918,48.956053 161.060545,48.5078153 161.365234,47.9453125 L161.365234,44.6757812 L159.466797,44.6757812 C156.923815,44.6757812 155.570313,45.5546787 155.40625,47.3125 L155.388672,47.6113281 C155.388672,48.2441438 155.611326,48.7656229 156.056641,49.1757812 C156.501955,49.5859396 157.111324,49.7910156 157.884766,49.7910156 Z M177.220703,47.1191406 L180.753906,34.3046875 L186.0625,34.3046875 L179.646484,53.3242188 L174.794922,53.3242188 L168.378906,34.3046875 L173.6875,34.3046875 L177.220703,47.1191406 Z M196.820312,53.6757812 C194.031236,53.6757812 191.760751,52.8203211 190.008789,51.109375 C188.256827,49.3984289 187.380859,47.1191549 187.380859,44.2714844 L187.380859,43.7792969 C187.380859,41.8691311 187.749996,40.1611403 188.488281,38.6552734 C189.226566,37.1494065 190.272454,35.9892619 191.625977,35.1748047 C192.979499,34.3603475 194.523429,33.953125 196.257812,33.953125 C198.859388,33.953125 200.907219,34.7734293 202.401367,36.4140625 C203.895515,38.0546957 204.642578,40.3808443 204.642578,43.3925781 L204.642578,45.4667969 L192.53125,45.4667969 C192.695313,46.7089906 193.190426,47.7050744 194.016602,48.4550781 C194.842778,49.2050819 195.888666,49.5800781 197.154297,49.5800781 C199.111338,49.5800781 200.640619,48.8711008 201.742188,47.453125 L204.238281,50.2480469 C203.476559,51.3261773 202.445319,52.1669892 201.144531,52.7705078 C199.843743,53.3740265 198.402352,53.6757812 196.820312,53.6757812 Z M196.240234,38.0664062 C195.232417,38.0664062 194.415042,38.4062466 193.788086,39.0859375 C193.16113,39.7656284 192.759767,40.7382749 192.583984,42.0039062 L199.650391,42.0039062 L199.650391,41.5996094 C199.626953,40.4746038 199.322269,39.6044953 198.736328,38.9892578 C198.150388,38.3740204 197.318365,38.0664062 196.240234,38.0664062 Z M212.886719,53.3242188 L207.789062,53.3242188 L207.789062,26.3242188 L212.886719,26.3242188 L212.886719,53.3242188 Z M241.240234,41.0546875 L229.269531,41.0546875 L229.269531,51.4960938 L243.033203,51.4960938 L243.033203,53.3242188 L227.107422,53.3242188 L227.107422,27.7304688 L242.945312,27.7304688 L242.945312,29.5761719 L229.269531,29.5761719 L229.269531,39.2265625 L241.240234,39.2265625 L241.240234,41.0546875 Z M253.791016,51.9003906 C255.255867,51.9003906 256.483393,51.4873088 257.473633,50.6611328 C258.463872,49.8349568 259,48.7656316 259.082031,47.453125 L261.103516,47.453125 C261.044922,48.6132871 260.681644,49.6708937 260.013672,50.6259766 C259.3457,51.5810595 258.458013,52.3281223 257.350586,52.8671875 C256.243159,53.4062527 255.056647,53.6757812 253.791016,53.6757812 C251.294909,53.6757812 249.31739,52.8086024 247.858398,51.0742188 C246.399407,49.3398351 245.669922,47.0078271 245.669922,44.078125 L245.669922,43.4453125 C245.669922,41.5703031 245.998044,39.9121166 246.654297,38.4707031 C247.31055,37.0292897 248.25097,35.9160196 249.475586,35.1308594 C250.700201,34.3456992 252.132804,33.953125 253.773438,33.953125 C255.859385,33.953125 257.579095,34.5742125 258.932617,35.8164062 C260.28614,37.0586 261.009765,38.6933492 261.103516,40.7207031 L259.082031,40.7207031 C258.988281,39.2324144 258.452153,38.0312546 257.473633,37.1171875 C256.495112,36.2031204 255.261726,35.7460938 253.773438,35.7460938 C251.874991,35.7460938 250.401372,36.4316338 249.352539,37.8027344 C248.303706,39.173835 247.779297,41.0956908 247.779297,43.5683594 L247.779297,44.1835938 C247.779297,46.6093871 248.303706,48.5019463 249.352539,49.8613281 C250.401372,51.2207099 251.88085,51.9003906 253.791016,51.9003906 Z M267.396484,37.5214844 C268.087894,36.3847599 268.972651,35.5058625 270.050781,34.8847656 C271.128912,34.2636688 272.306634,33.953125 273.583984,33.953125 C275.623057,33.953125 277.14062,34.527338 278.136719,35.6757812 C279.132817,36.8242245 279.636719,38.5468635 279.648438,40.84375 L279.648438,53.3242188 L277.556641,53.3242188 L277.556641,40.8261719 C277.544922,39.1269446 277.184574,37.8613323 276.475586,37.0292969 C275.766598,36.1972615 274.63282,35.78125 273.074219,35.78125 C271.773431,35.78125 270.622075,36.1884725 269.620117,37.0029297 C268.618159,37.8173869 267.876956,38.9160087 267.396484,40.2988281 L267.396484,53.3242188 L265.304688,53.3242188 L265.304688,26.3242188 L267.396484,26.3242188 L267.396484,37.5214844 Z M283.902344,43.5332031 C283.902344,41.705069 284.256832,40.0586011 284.96582,38.59375 C285.674808,37.1288989 286.676751,35.9892619 287.97168,35.1748047 C289.266608,34.3603475 290.734367,33.953125 292.375,33.953125 C294.906263,33.953125 296.957023,34.8408114 298.527344,36.6162109 C300.097664,38.3916104 300.882812,40.744126 300.882812,43.6738281 L300.882812,44.1132812 C300.882812,45.9531342 300.528324,47.6083911 299.819336,49.0791016 C299.110348,50.549812 298.111335,51.6835898 296.822266,52.4804688 C295.533197,53.2773477 294.062508,53.6757812 292.410156,53.6757812 C289.890612,53.6757812 287.842781,52.7880948 286.266602,51.0126953 C284.690422,49.2372958 283.902344,46.8847803 283.902344,43.9550781 L283.902344,43.5332031 Z M286.011719,44.1132812 C286.011719,46.3867301 286.60058,48.2529224 287.77832,49.7119141 C288.956061,51.1709057 290.49999,51.9003906 292.410156,51.9003906 C294.308603,51.9003906 295.846674,51.1709057 297.024414,49.7119141 C298.202154,48.2529224 298.791016,46.328137 298.791016,43.9375 L298.791016,43.5332031 C298.791016,42.0800709 298.521487,40.750006 297.982422,39.5429688 C297.443357,38.3359315 296.687505,37.4013705 295.714844,36.7392578 C294.742183,36.0771451 293.628913,35.7460938 292.375,35.7460938 C290.499991,35.7460938 288.970709,36.481438 287.787109,37.9521484 C286.60351,39.4228589 286.011719,41.3476444 286.011719,43.7265625 L286.011719,44.1132812 Z"/>
    <g transform="translate(-10 -10)">
      <circle cx="50" cy="50" r="40" fill="url(#a)"/>
      <g fill="#FFFFFF" transform="rotate(-45 60.607 24.393)">
        <path d="M35,70 C54.3299662,70 70,54.3299662 70,35 C70,15.6700338 54.3299662,3.55271368e-14 35,3.55271368e-14 C15.6700338,3.55271368e-14 3.55271368e-14,15.6700338 3.55271368e-14,35 C3.55271368e-14,54.3299662 15.6700338,70 35,70 Z M35,66 C52.1208272,66 66,52.1208272 66,35 C66,17.8791728 52.1208272,4 35,4 C17.8791728,4 4,17.8791728 4,35 C4,52.1208272 17.8791728,66 35,66 Z"/>
        <path d="M25,56 C36.5979797,56 46,46.5979797 46,35 C46,23.4020203 36.5979797,14 25,14 C13.4020203,14 4,23.4020203 4,35 C4,46.5979797 13.4020203,56 25,56 Z M25,60 C11.1928813,60 -1.27897692e-13,48.8071187 -1.27897692e-13,35 C-1.27897692e-13,21.1928813 11.1928813,10 25,10 C38.8071187,10 50,21.1928813 50,35 C50,48.8071187 38.8071187,60 25,60 Z"/>
        <path d="M15,46 C21.0751322,46 26,41.0751322 26,35 C26,28.9248678 21.0751322,24 15,24 C8.92486775,24 4,28.9248678 4,35 C4,41.0751322 8.92486775,46 15,46 Z M15,50 C6.71572875,50 -1.27897692e-13,43.2842712 -1.27897692e-13,35 C-1.27897692e-13,26.7157288 6.71572875,20 15,20 C23.2842712,20 30,26.7157288 30,35 C30,43.2842712 23.2842712,50 15,50 Z"/>
      </g>
    </g>
  </g>
</svg>

<svg xmlns="http://www.w3.org/2000/svg" width="306" height="80" viewBox="0 0 306 80"><defs><linearGradient id="a" x1="50%" x2="50%" y1="0%" y2="100%"><stop stop-color="#4BC0CE" offset="0%"/><stop stop-color="#4BA898" offset="100%"/></linearGradient></defs><g fill="none" fill-rule="evenodd"><path fill="#2E2E2E" d="M105.273 49.088h11.198v4.236H100V27.73h5.273v21.358zm24.91 4.236c-.236-.457-.406-1.025-.51-1.705-1.232 1.37-2.83 2.056-4.8 2.056-1.863 0-3.407-.54-4.632-1.617-1.223-1.08-1.836-2.44-1.836-4.08 0-2.015.747-3.562 2.242-4.64 1.494-1.078 3.653-1.623 6.477-1.635h2.338v-1.09c0-.88-.225-1.582-.676-2.11-.45-.526-1.163-.79-2.136-.79-.855 0-1.526.205-2.012.615-.487.41-.73.973-.73 1.688h-5.08c0-1.102.34-2.122 1.02-3.06.68-.937 1.64-1.672 2.883-2.205 1.24-.533 2.635-.8 4.182-.8 2.344 0 4.204.59 5.58 1.767 1.378 1.177 2.067 2.833 2.067 4.966v8.244c.01 1.804.262 3.17.754 4.095v.3h-5.132zm-4.203-3.533c.75 0 1.442-.166 2.075-.5.633-.334 1.1-.782 1.406-1.345v-3.27h-1.898c-2.542 0-3.896.88-4.06 2.638l-.018.298c0 .634.223 1.156.668 1.566.446.41 1.055.615 1.828.615zm23.168-10.722c-.69-.093-1.3-.14-1.828-.14-1.922 0-3.18.65-3.78 1.95v12.446h-5.08v-19.02h4.8l.14 2.268c1.02-1.746 2.432-2.62 4.237-2.62.562 0 1.09.077 1.582.23l-.072 4.886zm12.938 14.256c-.234-.457-.404-1.025-.51-1.705-1.23 1.37-2.83 2.056-4.8 2.056-1.862 0-3.406-.54-4.63-1.617-1.225-1.08-1.837-2.44-1.837-4.08 0-2.015.746-3.562 2.24-4.64 1.494-1.078 3.653-1.623 6.477-1.635h2.338v-1.09c0-.88-.225-1.582-.677-2.11-.45-.526-1.163-.79-2.135-.79-.856 0-1.527.205-2.013.615-.486.41-.73.973-.73 1.688h-5.08c0-1.102.34-2.122 1.02-3.06.68-.937 1.64-1.672 2.883-2.205 1.242-.533 2.637-.8 4.183-.8 2.344 0 4.205.59 5.58 1.767 1.378 1.177 2.067 2.833 2.067 4.966v8.244c.012 1.804.264 3.17.756 4.095v.3h-5.134zm-4.2-3.533c.75 0 1.44-.166 2.073-.5.632-.334 1.1-.782 1.405-1.345v-3.27h-1.898c-2.543 0-3.897.88-4.06 2.638l-.018.298c0 .634.22 1.156.667 1.566.445.41 1.054.615 1.828.615zm19.335-2.67l3.534-12.815h5.31l-6.418 19.02h-4.85l-6.417-19.02h5.308l3.533 12.814zm19.6 6.556c-2.79 0-5.06-.856-6.81-2.567-1.753-1.712-2.63-3.99-2.63-6.84v-.49c0-1.91.37-3.62 1.108-5.125.74-1.506 1.784-2.666 3.138-3.48 1.353-.815 2.897-1.222 4.632-1.222 2.6 0 4.65.82 6.143 2.46 1.496 1.642 2.243 3.968 2.243 6.98v2.074H192.53c.165 1.242.66 2.238 1.487 2.988.826.75 1.872 1.125 3.137 1.125 1.957 0 3.487-.71 4.588-2.127l2.496 2.795c-.76 1.078-1.793 1.92-3.093 2.523-1.3.604-2.743.906-4.325.906zm-.58-15.61c-1.008 0-1.825.34-2.452 1.02-.627.68-1.028 1.652-1.204 2.918h7.066V41.6c-.023-1.125-.328-1.996-.914-2.61-.586-.616-1.418-.924-2.496-.924zm16.647 15.258h-5.098v-27h5.097v27zm28.353-12.27h-11.97v10.442h13.763v1.828h-15.926V27.73h15.838v1.846H229.27v9.65h11.97v1.83zM253.79 51.9c1.466 0 2.693-.413 3.684-1.24.99-.825 1.526-1.894 1.608-3.207h2.022c-.06 1.16-.422 2.218-1.09 3.173-.668.955-1.556 1.702-2.663 2.24-1.107.54-2.293.81-3.56.81-2.495 0-4.473-.867-5.932-2.602-1.46-1.734-2.188-4.066-2.188-6.996v-.633c0-1.875.328-3.533.984-4.974.657-1.44 1.597-2.554 2.822-3.34 1.224-.784 2.657-1.177 4.297-1.177 2.086 0 3.806.62 5.16 1.863 1.353 1.243 2.077 2.877 2.17 4.905h-2.02c-.095-1.488-.63-2.69-1.61-3.603-.978-.914-2.21-1.37-3.7-1.37-1.898 0-3.372.685-4.42 2.056-1.05 1.37-1.574 3.293-1.574 5.765v.616c0 2.425.524 4.318 1.573 5.677 1.048 1.36 2.528 2.04 4.438 2.04zm13.606-14.38c.692-1.135 1.577-2.014 2.655-2.635 1.08-.62 2.257-.932 3.534-.932 2.04 0 3.557.574 4.553 1.723.996 1.148 1.5 2.87 1.51 5.168v12.48h-2.09V40.826c-.012-1.7-.372-2.965-1.08-3.797-.71-.833-1.844-1.25-3.403-1.25-1.3 0-2.452.408-3.454 1.223-1.002.814-1.743 1.913-2.224 3.296v13.024h-2.09v-27h2.09V37.52zm16.506 6.013c0-1.828.355-3.474 1.064-4.94.71-1.464 1.71-2.604 3.006-3.418 1.295-.815 2.762-1.222 4.403-1.222 2.53 0 4.582.888 6.152 2.663 1.57 1.776 2.356 4.128 2.356 7.058v.44c0 1.84-.355 3.494-1.064 4.965-.71 1.47-1.71 2.604-2.998 3.4-1.29.797-2.76 1.196-4.412 1.196-2.52 0-4.567-.888-6.143-2.663-1.577-1.776-2.365-4.128-2.365-7.058v-.422zm2.11.58c0 2.274.59 4.14 1.766 5.6 1.178 1.458 2.722 2.187 4.632 2.187 1.9 0 3.437-.73 4.614-2.188 1.178-1.46 1.767-3.384 1.767-5.775v-.404c0-1.453-.27-2.783-.808-3.99-.54-1.207-1.294-2.142-2.267-2.804-.973-.663-2.086-.994-3.34-.994-1.875 0-3.404.735-4.588 2.206-1.183 1.47-1.775 3.396-1.775 5.775v.386z"/><g transform="translate(-10 -10)"><circle cx="50" cy="50" r="40" fill="url(#a)"/><g fill="#FFF"><path d="M74.75 74.75c13.667-13.67 13.667-35.83 0-49.5-13.67-13.667-35.83-13.667-49.498 0-13.67 13.67-13.67 35.83 0 49.5 13.668 13.667 35.83 13.667 49.497 0zm-2.83-2.83c12.107-12.106 12.107-31.734 0-43.84-12.106-12.106-31.734-12.106-43.84 0-12.106 12.106-12.106 31.734 0 43.84 12.106 12.107 31.734 12.107 43.84 0z"/><path d="M57.78 71.92c8.2-8.2 8.2-21.497 0-29.698-8.202-8.2-21.5-8.2-29.7 0s-8.2 21.497 0 29.698c8.2 8.2 21.498 8.2 29.7 0zm2.827 2.83c-9.763 9.762-25.592 9.762-35.355 0-9.763-9.764-9.763-25.593 0-35.356 9.763-9.764 25.592-9.764 35.355 0 9.763 9.763 9.763 25.592 0 35.355z"/><path d="M43.636 71.92c4.296-4.295 4.296-11.26 0-15.556-4.295-4.296-11.26-4.296-15.556 0-4.296 4.296-4.296 11.26 0 15.556 4.296 4.296 11.26 4.296 15.556 0zm2.83 2.83c-5.86 5.857-15.356 5.857-21.214 0-5.858-5.86-5.858-15.356 0-21.214 5.858-5.858 15.355-5.858 21.213 0 5.858 5.858 5.858 15.355 0 21.213z"/></g></g></g></svg>
